logos/gnupg.svg

<?xml version="1.0" encoding="UTF-8"?>
<svg width="512px" height="173px" viewBox="0 0 512 173" version="1.1" xmlns="http://www.w3.org/2000/svg" preserveAspectRatio="xMidYMid">
    <title>GnuPG</title>
    <g>
        <path d="M508.587147,87.946013 L508.587147,98.6268822 C500.666038,93.23378 492.829194,90.5372289 485.076617,90.5372289 C476.64989,90.5372289 469.845313,93.4023141 464.662885,99.1324846 C461.418607,102.713839 459.206596,106.65333 458.02685,110.950957 C456.552169,116.133389 455.814828,121.863559 455.814828,128.141465 C455.814828,141.076479 458.722053,150.704007 464.536502,157.024047 C469.423993,162.375013 475.849358,165.050496 483.812595,165.050496 C488.447299,165.050496 492.892396,163.84969 497.147887,161.448076 L497.147887,127.762262 C497.147887,126.203319 496.979356,124.812911 496.642292,123.591038 L511.683978,123.591038 C511.346915,124.897179 511.178383,126.287587 511.178383,127.762262 L511.178383,160.94247 C511.22051,162.880616 511.494383,164.608094 512,166.124905 C504.247401,168.652921 498.580431,170.275065 494.999089,170.991335 C491.459853,171.707606 487.204351,172.065741 482.232584,172.065741 C473.258133,172.065741 465.926896,170.464665 460.238873,167.262512 C453.413232,163.428353 448.293995,157.803518 444.881164,150.388006 C441.889674,143.899431 440.393928,136.420718 440.393928,127.951865 C440.393928,112.91017 445.07076,101.32343 454.424423,93.191646 C461.966341,86.5766709 471.973069,83.2691834 484.444606,83.2691834 C492.028651,83.2691834 500.076165,84.8281266 508.587147,87.946013 L508.587147,87.946013 Z M392.488026,133.703101 L392.488026,166.630508 C392.488026,167.852383 392.698685,169.242792 393.120005,170.801735 L377.50953,170.801735 C377.888722,169.495592 378.078318,168.105183 378.078318,166.630508 L378.078318,88.7676176 C378.078318,87.2086744 377.888722,85.7971994 377.50953,84.5331925 L405.128084,84.5331925 C411.86947,84.5331925 417.578579,85.8814675 422.25541,88.5780175 C429.418115,92.7913767 432.999468,99.3852847 432.999468,108.359742 C432.999468,118.303271 428.638636,125.465982 419.916973,129.847876 C414.818822,132.418026 408.730522,133.703101 401.652072,133.703101 L392.488026,133.703101 Z M392.488026,127.06706 L400.198476,127.06706 C404.411818,127.06706 407.803564,126.308655 410.373714,124.791846 C412.817481,123.317169 414.755631,121.126221 416.188163,118.219003 C417.620695,115.311785 418.336962,112.088564 418.336962,108.549342 C418.336962,103.071976 416.820153,98.7743493 413.786534,95.6564629 C410.795065,92.4964425 406.665978,90.9164323 401.399274,90.9164323 L392.488026,90.9164323 L392.488026,127.06706 L392.488026,127.06706 Z M346.667731,170.801735 L346.667731,161.574475 C344.266113,164.860895 341.948771,167.220377 339.715707,168.65292 C336.176471,170.886 331.731373,172.00254 326.380414,172.00254 C319.17556,172.00254 313.634994,169.95906 309.758716,165.872101 C306.556544,162.501415 304.955458,157.634985 304.955458,151.272812 L304.955458,107.538137 C304.955458,106.105594 304.786926,104.736252 304.449862,103.430111 L318.669964,103.430111 C318.3329,104.609852 318.164368,105.979194 318.164368,107.538137 L318.164368,149.819203 C318.164368,153.442692 319.028102,156.328843 320.755571,158.477657 C323.030785,161.216341 326.443605,162.585683 330.994033,162.585683 C335.586588,162.585683 339.294345,161.279541 342.117303,158.667257 C344.982389,156.012841 346.414933,152.578953 346.414933,148.365594 L346.414933,107.538137 C346.414933,106.063462 346.246401,104.69412 345.909337,103.430111 L360.129406,103.430111 C359.792342,104.525584 359.62381,105.894926 359.62381,107.538137 L359.62381,166.630508 C359.62381,167.978783 359.792342,169.369192 360.129406,170.801735 L346.667731,170.801735 L346.667731,170.801735 Z M232.148617,103.430111 L245.610299,103.430111 L245.610299,112.846971 C247.632713,109.686951 249.676192,107.369603 251.740738,105.894928 C255.617029,103.198376 260.525593,101.850099 266.466432,101.850099 C274.134746,101.850099 279.949182,104.188514 283.909741,108.865344 C286.437757,111.85683 287.701765,116.028056 287.701765,121.379022 L287.701765,166.630508 C287.701765,168.020917 287.870299,169.411326 288.207367,170.801735 L273.987279,170.801735 C274.324347,169.748394 274.492881,168.357985 274.492881,166.630508 L274.492881,123.338237 C274.492881,119.504078 273.376341,116.533659 271.143262,114.426979 C268.91018,112.320299 265.729093,111.26696 261.600002,111.26696 C256.459702,111.26696 252.58341,112.699502 249.971126,115.564586 C247.232444,118.598206 245.863103,122.495564 245.863103,127.25666 L245.863103,166.630508 C245.863103,168.105183 246.031638,169.495592 246.368706,170.801735 L232.148617,170.801735 C232.485685,169.57986 232.654219,168.189451 232.654219,166.630508 L232.654219,107.538137 C232.654219,106.105594 232.485685,104.736252 232.148617,103.430111 L232.148617,103.430111 Z M213.567698,87.946013 L213.567698,98.6268822 C205.64658,93.23378 197.80973,90.5372289 190.057148,90.5372289 C181.630429,90.5372289 174.825854,93.4023141 169.643422,99.1324846 C166.399134,102.713839 164.187119,106.65333 163.007378,110.950957 C161.532703,116.133389 160.795366,121.863559 160.795366,128.141465 C160.795366,141.076479 163.702584,150.704007 169.51702,157.024047 C174.404518,162.375013 180.829892,165.050496 188.793142,165.050496 C193.427837,165.050496 197.872932,163.84969 202.128425,161.448076 L202.128425,127.762262 C202.128425,126.203319 201.959891,124.812911 201.622823,123.591038 L216.664516,123.591038 C216.327448,124.897179 216.158914,126.287587 216.158914,127.762262 L216.158914,160.94247 C216.201041,162.880616 216.47491,164.608094 216.980518,166.124905 C209.227936,168.652921 203.560967,170.275065 199.97961,170.991335 C196.44039,171.707606 192.184897,172.065741 187.213131,172.065741 C178.238674,172.065741 170.907428,170.464665 165.219394,167.262512 C158.393751,163.428353 153.274519,157.803518 149.861698,150.388006 C146.870212,143.899431 145.374469,136.420718 145.374469,127.951865 C145.374469,112.91017 150.051299,101.32343 159.404958,93.191646 C166.946871,86.5766709 176.953601,83.2691834 189.425146,83.2691834 C197.009192,83.2691834 205.056709,84.8281266 213.567698,87.946013 L213.567698,87.946013 Z M0.013793062,83.0554038 L9.11945934,83.0554038 L9.11945934,55.6460235 C9.11945934,24.9192514 34.0387108,0 64.7651621,0 C95.4925757,0 120.410223,24.9192514 120.410223,55.6460235 L120.410223,82.7846749 C120.278708,82.8767355 120.147834,82.9668716 120.018885,83.0554038 L120.019848,83.0554038 L119.935165,83.1125007 L119.925542,83.118916 L119.915918,83.1243691 L119.906295,83.1304637 L119.864275,83.1593329 L119.814555,83.1930137 L119.804932,83.1997498 L119.750402,83.2366382 L119.747836,83.2385628 L119.725382,83.2529974 L119.712551,83.2610167 L119.686889,83.2793005 L119.680474,83.2834705 L119.647435,83.3056035 L119.647114,83.3056035 L119.614075,83.3280574 L119.569488,83.3578889 L119.547034,83.3723235 L119.527788,83.3841919 L119.51175,83.3941357 L119.46171,83.4281372 L119.413274,83.4598934 L119.411028,83.4614972 L119.348158,83.5031972 L119.335327,83.5121787 L119.258663,83.5625394 L119.252248,83.5670302 L119.220171,83.5878801 L119.219208,83.5885217 L119.206378,83.5962201 L119.105977,83.6619778 L119.089939,83.6722424 L119.067485,83.686677 L119.057862,83.6927716 L119.051446,83.6975831 L118.999803,83.7312638 L118.993387,83.7341508 L118.992104,83.7351131 L118.988896,83.7370377 L118.929875,83.7752092 L118.917044,83.7832284 L118.897798,83.7954176 L118.878552,83.8066445 L118.865721,83.8153053 L118.833644,83.8355137 L118.804775,83.8541183 L118.80253,83.8550806 L118.770453,83.8752891 L118.767245,83.8775345 L118.738376,83.894856 L118.728753,83.9006298 L118.706299,83.9150644 L118.690261,83.9240459 L118.674222,83.9343105 L118.654976,83.9468205 L118.642145,83.9538774 L118.4731,84.0600519 L118.437174,84.0818642 L118.427551,84.0873173 L118.337094,84.1434519 L118.330679,84.1479426 L118.227712,84.2104926 L118.225146,84.2120964 L118.21873,84.2165872 L118.189861,84.2332671 L118.188257,84.2342294 L118.159388,84.2521925 L118.15618,84.2541171 L118.130519,84.2698348 L118.104857,84.2852317 L118.10165,84.2874771 L118.088819,84.2958171 L118.044232,84.3224409 L118.021778,84.3368755 L117.987777,84.3574047 L117.888338,84.4157846 L117.7889,84.4741646 L117.68882,84.5328653 L117.58874,84.5918868 L117.386656,84.7099297 L117.284972,84.7689512 L117.182968,84.8286142 L117.140626,84.8529926 L116.874067,85.0069617 L116.770459,85.0666247 L116.665888,85.1262877 L116.561317,85.1865923 L116.423708,85.2651806 L116.244077,85.3668644 L116.137582,85.4271689 L115.72379,85.6597264 L115.704544,85.6693494 L115.595482,85.7299747 L115.486421,85.7912416 L115.460759,85.8047139 L115.315451,85.8849061 L114.989229,86.0642159 L114.835902,86.1482574 C114.679366,86.2332611 114.521227,86.3189064 114.361484,86.4045517 L114.320747,86.4266848 L114.246328,86.4664601 L114.014092,86.5899561 L113.897332,86.6521853 L113.878086,86.6624499 L113.663491,86.7756813 L113.662529,86.7763228 L113.543845,86.8382312 L113.509843,86.8558735 L113.305193,86.9630103 L113.185225,87.0252395 L113.075201,87.0820156 C112.925402,87.1596417 112.773999,87.2372677 112.621313,87.3148938 L112.496534,87.378406 C112.317224,87.4691836 112.13599,87.5606028 111.952831,87.6517011 L111.951227,87.6523427 C111.776408,87.739271 111.599985,87.8265202 111.421638,87.9137693 L111.244573,88.0003769 C111.050829,88.0943622 110.855481,88.1893098 110.657566,88.2839366 L110.656604,88.2839366 C99.6061159,93.5628301 81.8842766,99.1794932 48.2413946,101.594562 C24.1404246,103.326073 9.52972275,113.9339 0,126.735786 L0,83.0554038 L0.013793062,83.0554038 Z M34.7508177,83.0554038 L94.7791857,83.0554038 L94.7791857,55.6460235 C94.7791857,39.0715746 81.3389695,25.6313584 64.7651621,25.6313584 C48.1916754,25.6313584 34.7508177,39.0715746 34.7508177,55.6460235 L34.7508177,83.0554038 Z M112.510327,87.378406 C112.330697,87.4691836 112.150104,87.560282 111.966624,87.6517011 M89.9727848,13.4617077 C82.8369602,9.19772695 74.4947239,6.74448653 65.5802358,6.74448653 C41.1447039,6.74448653 21.0029842,25.1550166 18.2629764,48.8563086 C25.426387,26.4448283 46.4248804,10.2103943 71.2100505,10.2103943 C77.7938318,10.2103943 84.1107334,11.3587469 89.9727848,13.4617077 Z M129.516531,93.5467917 L129.516531,172.088015 L18.7213551,172.088015 C30.9349511,165.297338 40.0374097,165.988915 55.1132264,166.465578 C75.6433972,167.114814 98.3284934,158.514359 109.485156,147.126422 C120.643102,135.737202 108.475375,144.431643 95.8447799,147.635803 C83.2122598,150.838039 58.7687086,151.179016 42.429704,146.884242 C93.8906559,147.585763 113.918503,130.939141 125.292005,116.030766 C136.664866,101.122711 120.373014,113.442482 109.818756,118.581841 C99.2651385,123.726011 80.8584577,127.40106 60.618262,124.721036 C91.2555395,124.657524 114.566777,109.347225 129.516531,93.5467917 L129.516531,93.5467917 Z" fill="#0093DD"></path>
    </g>
</svg>

<?xml version="1.0" encoding="UTF-8"?>
<svg width="512" height="173" version="1.1" xmlns="http://www.w3.org/2000/svg" preserveAspectRatio="xMidYMid">
	<path d="M508.587 87.946v10.68c-7.921-5.392-15.758-8.089-23.51-8.089-8.427 0-15.232 2.865-20.414 8.595-3.244 3.582-5.456 7.521-6.636 11.819-1.475 5.182-2.212 10.913-2.212 17.19 0 12.935 2.907 22.563 8.722 28.883 4.887 5.351 11.312 8.026 19.276 8.026 4.634 0 9.08-1.2 13.335-3.602v-33.686c0-1.559-.169-2.95-.506-4.171h15.042a16.64 16.64 0 0 0-.506 4.171v33.18c.043 1.939.316 3.666.822 5.183-7.753 2.528-13.42 4.15-17 4.866-3.54.717-7.796 1.075-12.767 1.075-8.975 0-16.306-1.601-21.994-4.803-6.826-3.835-11.945-9.46-15.358-16.875-2.991-6.489-4.487-13.967-4.487-22.436 0-15.042 4.677-26.629 14.03-34.76 7.542-6.615 17.55-9.923 30.02-9.923 7.585 0 15.632 1.56 24.143 4.677Zm-116.099 45.757v32.928c0 1.221.21 2.612.632 4.17h-15.61c.379-1.305.568-2.696.568-4.17V88.768c0-1.56-.19-2.97-.568-4.235h27.618c6.741 0 12.45 1.348 17.127 4.045C429.418 92.791 433 99.385 433 108.36c0 9.943-4.36 17.106-13.082 21.488-5.098 2.57-11.186 3.855-18.265 3.855h-9.164Zm0-6.636h7.71c4.214 0 7.606-.758 10.176-2.275 2.443-1.475 4.382-3.666 5.814-6.573 1.433-2.907 2.149-6.13 2.149-9.67 0-5.477-1.517-9.775-4.55-12.893-2.992-3.16-7.121-4.74-12.388-4.74h-8.911v36.151Zm-45.82 43.735v-9.228c-2.402 3.287-4.72 5.646-6.952 7.079-3.54 2.233-7.985 3.35-13.336 3.35-7.204 0-12.745-2.044-16.621-6.13-3.202-3.372-4.804-8.238-4.804-14.6v-43.735c0-1.432-.168-2.802-.505-4.108h14.22c-.337 1.18-.506 2.55-.506 4.108v42.281c0 3.624.864 6.51 2.592 8.659 2.275 2.738 5.688 4.108 10.238 4.108 4.593 0 8.3-1.306 11.123-3.919 2.865-2.654 4.298-6.088 4.298-10.301v-40.828c0-1.475-.169-2.844-.506-4.108h14.22c-.337 1.096-.505 2.465-.505 4.108v59.093c0 1.348.168 2.738.505 4.17h-13.461Zm-114.52-67.372h13.462v9.417c2.023-3.16 4.066-5.477 6.13-6.952 3.877-2.697 8.786-4.045 14.726-4.045 7.669 0 13.483 2.339 17.444 7.015 2.528 2.992 3.792 7.163 3.792 12.514v45.252c0 1.39.168 2.78.505 4.17h-14.22c.337-1.053.506-2.443.506-4.17v-43.293c0-3.834-1.117-6.804-3.35-8.911-2.233-2.107-5.414-3.16-9.543-3.16-5.14 0-9.017 1.433-11.629 4.298-2.739 3.033-4.108 6.93-4.108 11.692v39.374c0 1.474.169 2.865.506 4.17h-14.22c.337-1.221.505-2.612.505-4.17v-59.093c0-1.432-.168-2.802-.505-4.108Zm-18.58-15.484v10.68c-7.921-5.392-15.758-8.089-23.51-8.089-8.428 0-15.232 2.865-20.415 8.595-3.244 3.582-5.456 7.521-6.636 11.819-1.474 5.182-2.212 10.913-2.212 17.19 0 12.935 2.908 22.563 8.722 28.883 4.888 5.351 11.313 8.026 19.276 8.026 4.635 0 9.08-1.2 13.335-3.602v-33.686c0-1.559-.168-2.95-.505-4.171h15.042a16.64 16.64 0 0 0-.506 4.171v33.18c.042 1.939.316 3.666.822 5.183-7.753 2.528-13.42 4.15-17.001 4.866-3.54.717-7.795 1.075-12.767 1.075-8.974 0-16.306-1.601-21.994-4.803-6.825-3.835-11.944-9.46-15.357-16.875-2.992-6.489-4.488-13.967-4.488-22.436 0-15.042 4.677-26.629 14.031-34.76 7.542-6.615 17.549-9.923 30.02-9.923 7.584 0 15.632 1.56 24.143 4.677ZM.014 83.056h9.105v-27.41C9.12 24.919 34.04 0 64.765 0c30.728 0 55.645 24.92 55.645 55.646v27.139c-.131.092-.262.182-.391.27l-.084.058-.01.006-.01.005-.009.006-.042.03-.05.033-.01.007-.054.037-.002.002-.023.014-.012.008-.026.018-.007.004-.033.023-.033.022-.045.03-.022.014-.02.012-.015.01-.05.034-.049.032-.002.001-.063.042-.013.01-.076.05-.007.004-.032.02v.002l-.014.007-.1.066-.016.01-.023.015-.01.006-.006.005-.051.033-.007.003v.001l-.004.002-.06.038-.012.008-.02.012-.018.012-.013.008-.032.02-.03.02h-.001l-.033.02-.003.003-.029.017-.01.006-.022.014-.016.009-.016.01-.019.013-.013.007-.169.106-.036.022-.01.005-.09.056-.006.005-.103.062-.003.002-.006.005-.03.016v.001l-.03.018-.003.002-.025.016-.026.015-.003.002-.013.009-.045.026-.022.015-.034.02-.1.059-.1.058-.1.059-.1.059-.201.118-.102.059-.102.06-.042.024-.267.154-.104.06-.104.06-.105.06-.137.078-.18.102-.106.06-.414.233-.02.01-.109.06-.109.061-.025.014-.146.08-.326.18-.153.083-.475.257-.04.022-.075.04-.232.123-.117.062-.019.01-.215.114-.12.062-.033.018-.205.107-.12.062-.11.057-.454.233-.124.063c-.18.091-.361.183-.544.274h-.002c-.175.087-.351.175-.53.262l-.176.086c-.194.094-.39.19-.587.284h-.001c-11.05 5.279-28.773 10.895-62.416 13.31-24.1 1.732-38.711 12.34-48.241 25.142v-43.68h.014Zm34.737 0h60.028v-27.41c0-16.574-13.44-30.015-30.014-30.015-16.573 0-30.014 13.44-30.014 30.015v27.41Zm77.76 4.322-.544.274m-21.994-74.19A47.401 47.401 0 0 0 65.58 6.744c-24.435 0-44.577 18.411-47.317 42.112C25.426 26.445 46.425 10.21 71.21 10.21a55.46 55.46 0 0 1 18.763 3.252Zm39.544 80.085v78.541H18.72c12.214-6.79 21.316-6.1 36.392-5.622 20.53.649 43.215-7.952 54.372-19.34 11.158-11.389-1.01-2.694-13.64.51-12.633 3.202-37.076 3.543-53.415-.752 51.46.702 71.489-15.945 82.862-30.853 11.373-14.908-4.919-2.589-15.473 2.55-10.554 5.145-28.96 8.82-49.2 6.14 30.637-.063 53.948-15.374 68.898-31.174Z" fill="#0093DD"/>
</svg>
